images/svg/antenna.svg

<svg width="70" height="70" viewBox="0 0 70 70" fill="none" xmlns="http://www.w3.org/2000/svg">
<path d="M67.3163 48.3385L48.8468 29.7337L50.8966 19.6373C51.4256 19.8438 51.9879 19.9517 52.5556 19.9558H52.5696C55.1777 19.9866 57.3169 17.8974 57.3479 15.2893C57.3788 12.6812 55.2894 10.542 52.6813 10.5111C50.0732 10.4803 47.934 12.5695 47.9031 15.1776C47.8965 15.7357 47.9888 16.2905 48.176 16.8163L37.326 18.1405L19.6276 0.35C19.4105 0.128479 19.1141 0.00247917 18.804 0C18.4977 0.00160417 18.2044 0.123521 17.9873 0.3395L14.6786 3.6295C14.2232 4.08508 14.2232 4.82358 14.6786 5.27917L16.459 7.08517C9.56162 19.7681 11.8019 35.4741 21.9703 45.7228C22.0636 45.8121 22.1718 45.8843 22.29 45.9363C22.2165 46.3311 22.1781 46.7317 22.1756 47.1333V60.6667H8.17562C4.95562 60.6705 2.34608 63.28 2.34229 66.5V68.8333C2.34229 69.4776 2.86466 70 3.50895 70H57.1756C57.8199 70 58.3423 69.4776 58.3423 68.8333V66.5C58.3385 63.28 55.729 60.6705 52.509 60.6667H38.509V54.6688C40.7021 55.1288 42.9367 55.3633 45.1776 55.3688C50.5548 55.363 55.8464 54.0225 60.5776 51.4675L62.3673 53.2677C62.5844 53.4892 62.8808 53.6152 63.191 53.6177C63.4972 53.6161 63.7905 53.4941 64.0076 53.2782L67.3163 49.9882C67.7717 49.5326 67.7717 48.7941 67.3163 48.3385ZM50.9246 13.6348C51.8383 12.726 53.3157 12.7301 54.2244 13.6437C55.1332 14.5574 55.1291 16.0348 54.2155 16.9435C53.7781 17.3785 53.1864 17.6226 52.5695 17.6225H52.5625C51.2739 17.6158 50.2345 16.5658 50.2412 15.2771C50.2445 14.6602 50.4918 14.0699 50.9291 13.6348H50.9246V13.6348ZM48.1783 21.301L46.8693 27.7445L44.298 25.158L48.1783 21.301ZM46.853 19.3282L42.653 23.5037L39.4038 20.237L46.853 19.3282ZM52.509 63C54.442 63 56.009 64.567 56.009 66.5V67.6667H4.67562V66.5C4.67562 64.567 6.2426 63 8.17562 63H52.509ZM36.1756 58.3333V60.6667H24.509V58.3333H36.1756ZM24.509 56V47.1333C24.509 44.303 27.1258 42 30.3423 42C33.5588 42 36.1756 44.303 36.1756 47.1333V56H24.509ZM38.509 52.29V47.1333C38.509 43.0162 34.8456 39.6667 30.3423 39.6667C27.4306 39.622 24.7079 41.1041 23.165 43.5738C14.2887 34.2249 12.2899 20.2875 18.1805 8.82073L58.872 49.7455C52.5886 52.9419 45.3857 53.8418 38.509 52.29ZM63.2038 50.7943L61.56 49.1412L18.7923 6.11567L17.1415 4.46133L18.7923 2.81633L36.15 20.272C36.1581 20.272 36.1628 20.2872 36.171 20.293L64.8593 49.1493L63.2038 50.7943Z" fill="#212121"/>
<path d="M30.3528 44.3333H30.3423C28.4093 44.3304 26.84 45.895 26.837 47.8281C26.8341 49.7611 28.3988 51.3304 30.3318 51.3333H30.3423C32.2753 51.3362 33.8446 49.7716 33.8475 47.8386C33.8505 45.9055 32.2858 44.3362 30.3528 44.3333ZM31.1695 48.6605C30.9498 48.8789 30.6522 49.0012 30.3423 49C29.698 48.9966 29.1784 48.4716 29.1817 47.8273C29.1834 47.5189 29.307 47.2237 29.5256 47.0062C29.7428 46.7902 30.036 46.6683 30.3423 46.6667C30.9866 46.67 31.5062 47.195 31.5028 47.8393C31.5012 48.1477 31.3776 48.4429 31.159 48.6605H31.1695Z" fill="#2196F3"/>
</svg>

<svg width="70" height="70" fill="none" xmlns="http://www.w3.org/2000/svg"><path d="M67.316 48.339l-18.47-18.605 2.05-10.097a4.655 4.655 0 001.66.319h.014a4.723 4.723 0 10-4.394-3.14l-10.85 1.325L19.628.35a1.166 1.166 0 00-.824-.35c-.306.002-.6.124-.817.34L14.68 3.63a1.167 1.167 0 000 1.65l1.78 1.805a32.686 32.686 0 005.511 38.638c.094.09.202.161.32.213a6.77 6.77 0 00-.114 1.197v13.534h-14A5.84 5.84 0 002.342 66.5v2.333c0 .645.523 1.167 1.167 1.167h53.667c.644 0 1.166-.522 1.166-1.167V66.5a5.84 5.84 0 00-5.833-5.833h-14v-5.998c2.193.46 4.428.694 6.669.7a32.483 32.483 0 0015.4-3.901l1.79 1.8c.216.221.513.347.823.35.306-.002.6-.124.817-.34l3.308-3.29a1.167 1.167 0 000-1.65zM50.925 13.635a2.333 2.333 0 111.645 3.987h-.008a2.333 2.333 0 01-1.633-3.987h-.004zM48.178 21.3l-1.309 6.444-2.571-2.587 3.88-3.857zm-1.325-1.973l-4.2 4.176-3.25-3.267 7.45-.909zM52.509 63a3.5 3.5 0 013.5 3.5v1.167H4.676V66.5a3.5 3.5 0 013.5-3.5h44.333zm-16.333-4.667v2.334H24.509v-2.334h11.667zM24.509 56v-8.867c0-2.83 2.617-5.133 5.833-5.133 3.217 0 5.834 2.303 5.834 5.133V56H24.509zm14-3.71v-5.157c0-4.117-3.663-7.466-8.167-7.466a8.312 8.312 0 00-7.177 3.907A30.34 30.34 0 0118.18 8.82l40.692 40.925a30.233 30.233 0 01-20.363 2.544zm24.695-1.496l-1.644-1.653L18.792 6.116l-1.65-1.655 1.65-1.645L36.15 20.272c.008 0 .013.015.021.021l28.688 28.856-1.655 1.645z" fill="#212121"/><path d="M30.353 44.333h-.01a3.5 3.5 0 00-.011 7h.01a3.5 3.5 0 10.01-7zm.816 4.328a1.167 1.167 0 11-.827-1.994 1.166 1.166 0 01.817 1.993h.01z" fill="#2196F3"/></svg>
